X:1
T: 1st of May
C:
R:Reel
I:speed 232
Q:232
K:A
M:4/4
L:1/16
|:A4|E2A2A2B2 c4c2A2|d4c2d2 e4f2g2|a2f2g2e2 d4c2d2|e2c2A2F2 G4F2E2|
E2A2A2B2 c4c2A2|d4c2d2 e4f2g2|a2f2g2e2 d2f2e2c2|A4A4 A4f2g2|
a4a2f2 g4g2e2|f2g2f2d2 e4e2d2|c2d2e2f2 g4f2g2|a2e2c2A2 B4f2g2|
a4a2f2 g4g2e2|f2g2f2d2 e4e2f2|a2f2g2e2 d2f2e2c2|A4A4 A4:|
